img/svgicons/package.svg

<svg width="36" height="36" viewBox="0 0 36 36" fill="none" xmlns="http://www.w3.org/2000/svg">
<path d="M34.5116 7.34908L18.1991 1.16158C18.0709 1.11264 17.9291 1.11264 17.8009 1.16158L1.48837 7.34908C1.38158 7.3895 1.28962 7.46146 1.22471 7.55541C1.15981 7.64935 1.12503 7.76083 1.125 7.87501V28.125C1.12497 28.2388 1.15947 28.35 1.22395 28.4438C1.28842 28.5376 1.37984 28.6096 1.48613 28.6504L17.7986 34.9166C17.9278 34.9659 18.0705 34.9659 18.1997 34.9166L34.5122 28.7066C34.6188 28.6662 34.7106 28.5942 34.7754 28.5004C34.8402 28.4066 34.8749 28.2953 34.875 28.1813V7.87501C34.875 7.76083 34.8402 7.64935 34.7753 7.55541C34.7104 7.46146 34.6184 7.3895 34.5116 7.34908ZM18 2.28883L32.7268 7.87501L18 13.4612L13.5264 11.7641L20.5279 9.11251C20.6346 9.07203 20.7265 9.00004 20.7913 8.9061C20.8562 8.81216 20.8909 8.70072 20.8909 8.58658C20.8909 8.47243 20.8562 8.36099 20.7913 8.26705C20.7265 8.17311 20.6346 8.10112 20.5279 8.06064L16.3316 6.46876C16.2031 6.42006 16.0613 6.42006 15.9328 6.46876L7.74731 9.57208L3.27319 7.87501L18 2.28883ZM8.4375 11.0368L11.25 12.1056V20.5071L8.4375 19.4299V11.0368ZM9.333 10.1734L16.1325 7.59376L18.7419 8.58377L11.9402 11.1623L9.333 10.1734ZM2.25 8.69008L7.3125 10.6105V19.8169C7.31251 19.9308 7.3471 20.042 7.41168 20.1358C7.47626 20.2296 7.5678 20.3016 7.67419 20.3423L11.6117 21.8498C11.6969 21.8823 11.7887 21.8937 11.8792 21.8829C11.9698 21.872 12.0563 21.8394 12.1314 21.7877C12.2065 21.736 12.2679 21.6668 12.3104 21.5861C12.3528 21.5054 12.375 21.4156 12.375 21.3244V12.5303L17.4375 14.4506V33.5723L2.25 27.7386V8.69008ZM18.5625 33.5751V14.4501L33.75 8.69008V27.7937L18.5625 33.5751Z" fill="#C4C4C4"/>
<path d="M23.9866 28.1357L20.6037 29.4232C20.4807 29.4699 20.3779 29.5583 20.3132 29.6729C20.2486 29.7876 20.2262 29.9212 20.25 30.0507C20.2737 30.1801 20.3421 30.2972 20.4432 30.3814C20.5443 30.4656 20.6718 30.5117 20.8034 30.5117C20.8719 30.5118 20.9398 30.4992 21.0037 30.4746L24.3865 29.187C24.4569 29.1617 24.5214 29.1226 24.5765 29.0721C24.6315 29.0216 24.676 28.9606 24.7072 28.8927C24.7384 28.8248 24.7558 28.7514 24.7583 28.6767C24.7608 28.602 24.7484 28.5276 24.7219 28.4577C24.6953 28.3879 24.6551 28.324 24.6035 28.2699C24.552 28.2158 24.4902 28.1724 24.4218 28.1425C24.3533 28.1125 24.2796 28.0964 24.2049 28.0953C24.1302 28.0941 24.056 28.1079 23.9866 28.1357Z" fill="#C4C4C4"/>
<path d="M27.3586 26.8521L26.2263 27.283C26.1032 27.3296 26.0004 27.418 25.9358 27.5326C25.8712 27.6473 25.8488 27.781 25.8725 27.9104C25.8963 28.0399 25.9647 28.1569 26.0658 28.2411C26.1669 28.3253 26.2944 28.3714 26.426 28.3714C26.4944 28.3715 26.5623 28.3589 26.6262 28.3343L27.7585 27.9034C27.8289 27.8781 27.8934 27.839 27.9485 27.7885C28.0035 27.738 28.048 27.677 28.0792 27.6091C28.1104 27.5412 28.1278 27.4678 28.1303 27.3931C28.1328 27.3184 28.1204 27.244 28.0939 27.1741C28.0673 27.1043 28.0271 27.0404 27.9755 26.9863C27.924 26.9322 27.8622 26.8888 27.7938 26.8589C27.7253 26.8289 27.6516 26.8128 27.5769 26.8117C27.5022 26.8105 27.428 26.8243 27.3586 26.8521Z" fill="#C4C4C4"/>
<path d="M23.9866 25.8857L20.6037 27.1732C20.4807 27.2199 20.3779 27.3083 20.3132 27.4229C20.2486 27.5376 20.2262 27.6712 20.25 27.8007C20.2737 27.9301 20.3421 28.0472 20.4432 28.1314C20.5443 28.2156 20.6718 28.2617 20.8034 28.2617C20.8719 28.2618 20.9398 28.2492 21.0037 28.2246L24.3865 26.937C24.4569 26.9117 24.5214 26.8726 24.5765 26.8221C24.6315 26.7716 24.676 26.7106 24.7072 26.6427C24.7384 26.5748 24.7558 26.5014 24.7583 26.4267C24.7608 26.352 24.7484 26.2776 24.7219 26.2077C24.6953 26.1379 24.6551 26.074 24.6035 26.0199C24.552 25.9658 24.4902 25.9224 24.4218 25.8925C24.3533 25.8625 24.2796 25.8464 24.2049 25.8453C24.1302 25.8441 24.056 25.8579 23.9866 25.8857Z" fill="#C4C4C4"/>
<path d="M27.3586 24.6021L26.2263 25.033C26.1032 25.0796 26.0004 25.168 25.9358 25.2826C25.8712 25.3973 25.8488 25.531 25.8725 25.6604C25.8963 25.7899 25.9647 25.9069 26.0658 25.9911C26.1669 26.0753 26.2944 26.1214 26.426 26.1214C26.4944 26.1215 26.5623 26.1089 26.6262 26.0843L27.7585 25.6534C27.8289 25.6281 27.8934 25.589 27.9485 25.5385C28.0035 25.488 28.048 25.427 28.0792 25.3591C28.1104 25.2912 28.1278 25.2178 28.1303 25.1431C28.1328 25.0684 28.1204 24.994 28.0939 24.9241C28.0673 24.8543 28.0271 24.7904 27.9755 24.7363C27.924 24.6822 27.8622 24.6388 27.7938 24.6089C27.7253 24.5789 27.6516 24.5628 27.5769 24.5617C27.5022 24.5605 27.428 24.5743 27.3586 24.6021Z" fill="#C4C4C4"/>
<path d="M23.9866 23.6357L20.6037 24.9233C20.4807 24.9699 20.3779 25.0583 20.3132 25.1729C20.2486 25.2876 20.2262 25.4212 20.25 25.5507C20.2737 25.6801 20.3421 25.7972 20.4432 25.8814C20.5443 25.9656 20.6718 26.0117 20.8034 26.0117C20.8719 26.0118 20.9398 25.9992 21.0037 25.9746L24.3865 24.687C24.4569 24.6617 24.5214 24.6226 24.5765 24.5721C24.6315 24.5216 24.676 24.4606 24.7072 24.3927C24.7384 24.3248 24.7558 24.2514 24.7583 24.1767C24.7608 24.102 24.7484 24.0276 24.7219 23.9577C24.6953 23.8879 24.6551 23.824 24.6035 23.7699C24.552 23.7158 24.4902 23.6724 24.4218 23.6425C24.3533 23.6125 24.2796 23.5964 24.2049 23.5953C24.1302 23.5941 24.056 23.6079 23.9866 23.6357Z" fill="#C4C4C4"/>
<path d="M27.3586 22.3521L26.2263 22.783C26.1032 22.8296 26.0004 22.918 25.9358 23.0326C25.8712 23.1473 25.8488 23.281 25.8725 23.4104C25.8963 23.5399 25.9647 23.6569 26.0658 23.7411C26.1669 23.8253 26.2944 23.8714 26.426 23.8714C26.4944 23.8715 26.5623 23.8589 26.6262 23.8343L27.7585 23.4034C27.8289 23.3781 27.8934 23.339 27.9485 23.2885C28.0035 23.238 28.048 23.177 28.0792 23.1091C28.1104 23.0412 28.1278 22.9678 28.1303 22.8931C28.1328 22.8184 28.1204 22.744 28.0939 22.6741C28.0673 22.6043 28.0271 22.5404 27.9755 22.4863C27.924 22.4322 27.8622 22.3888 27.7938 22.3589C27.7253 22.3289 27.6516 22.3128 27.5769 22.3117C27.5022 22.3105 27.428 22.3243 27.3586 22.3521Z" fill="#C4C4C4"/>
</svg>

<svg width="36" height="36" fill="none" xmlns="http://www.w3.org/2000/svg"><path d="M34.512 7.35 18.199 1.161a.558.558 0 0 0-.398 0L1.488 7.349a.562.562 0 0 0-.363.526v20.25a.563.563 0 0 0 .361.525L17.8 34.917c.129.049.271.049.4 0l16.313-6.21a.562.562 0 0 0 .363-.526V7.875a.562.562 0 0 0-.363-.526ZM18 2.288l14.727 5.586L18 13.461l-4.474-1.697 7.002-2.651a.562.562 0 0 0 0-1.052l-4.196-1.592a.563.563 0 0 0-.4 0L7.748 9.572 3.273 7.875 18 2.289Zm-9.563 8.748 2.813 1.069v8.401L8.437 19.43v-8.393Zm.896-.864 6.8-2.58 2.609.99-6.802 2.58-2.607-.99ZM2.25 8.69l5.063 1.92v9.207a.562.562 0 0 0 .361.525l3.938 1.508a.563.563 0 0 0 .763-.526V12.53l5.063 1.92v19.122L2.25 27.74V8.69Zm16.313 24.885V14.45L33.75 8.69v19.104l-15.188 5.781Z" fill="#C4C4C4"/><path d="m23.987 28.136-3.383 1.287a.563.563 0 1 0 .4 1.052l3.383-1.288a.563.563 0 1 0-.4-1.051ZM27.359 26.852l-1.133.431a.562.562 0 1 0 .4 1.051l1.133-.43a.563.563 0 1 0-.4-1.052ZM23.987 25.886l-3.383 1.287a.563.563 0 1 0 .4 1.052l3.383-1.288a.563.563 0 1 0-.4-1.051ZM27.359 24.602l-1.133.431a.562.562 0 1 0 .4 1.051l1.133-.43a.563.563 0 1 0-.4-1.052ZM23.987 23.636l-3.383 1.287a.563.563 0 1 0 .4 1.052l3.383-1.288a.563.563 0 1 0-.4-1.051ZM27.359 22.352l-1.133.431a.562.562 0 1 0 .4 1.051l1.133-.43a.563.563 0 1 0-.4-1.052Z" fill="#C4C4C4"/></svg>
